packages/icons/svg/Outline/log-in.svg

<svg fill="none" height="24" viewBox="0 0 24 24" width="24" xmlns="http://www.w3.org/2000/svg"><path clip-rule="evenodd" d="m17 4h2c.55 0 1 .45 1 1v14c0 .55-.45 1-1 1h-2c-.55 0-1-.45-1-1s.45-1 1-1h1v-12h-1c-.55 0-1-.45-1-1s.45-1 1-1zm-6.6002 3.20043c.444-.331 1.069-.241 1.4.2l3 3.99997c.26.346.268.82.018 1.175l-2.814 4c-.195.277-.504.425-.819.425-.198 0-.399-.059-.574-.182-.452-.318-.561-.942-.243-1.394l1.718-2.442c-.0135.0014-.0261.0051-.0387.0089-.0154.0046-.0308.0091-.0473.0091h-7.99998c-.552 0-1-.448-1-1 0-.553.448-1 1-1h7.99998.001l-1.801-2.40097c-.33098-.441-.24198-1.068.2-1.399z" fill="#6b7280" fill-rule="evenodd"/></svg>

<svg width="24" height="24" viewBox="0 0 24 24" fill="none" xmlns="http://www.w3.org/2000/svg">
<g id="Icon/Outline/log-in">
<path id="Mask" fill-rule="evenodd" clip-rule="evenodd" d="M17 4H19C19.55 4 20 4.45 20 5V19C20 19.55 19.55 20 19 20H17C16.45 20 16 19.55 16 19C16 18.45 16.45 18 17 18H18V6H17C16.45 6 16 5.55 16 5C16 4.45 16.45 4 17 4ZM10.3998 7.2004C10.8438 6.8694 11.4688 6.9594 11.7998 7.4004L14.7998 11.4004C15.0598 11.7464 15.0678 12.2204 14.8178 12.5754L12.0038 16.5754C11.8088 16.8524 11.4998 17.0004 11.1848 17.0004C10.9868 17.0004 10.7858 16.9414 10.6108 16.8184C10.1588 16.5004 10.0498 15.8764 10.3678 15.4244L12.0858 12.9824C12.0723 12.9837 12.0596 12.9875 12.047 12.9913C12.0316 12.9958 12.0163 13.0004 11.9998 13.0004H3.99976C3.44776 13.0004 2.99976 12.5524 2.99976 12.0004C2.99976 11.4474 3.44776 11.0004 3.99976 11.0004H11.9998H12.0008L10.1998 8.5994C9.86876 8.1584 9.95776 7.5314 10.3998 7.2004Z" fill="#000000"/>
</g>
</svg>
